X:1
T:"AVE MARA"
T:"AVE MARA"
T:Claudio Raffi
T:©2007
T:©2007
T:©2007
T:©2007
T:©2007
T:©2007
T:©2007
T:©2007
C:Claudio Raffi
Z:©2007
%%score 1 { ( 2 4 ) | 3 }
L:1/8
Q:1/4=60
M:6/8
K:E
V:1 treble nm="Canto" snm="Canto"
V:2 treble nm="Arpa"
V:4 treble 
V:3 bass 
V:1
 z6 | z6 | z6 | z6 | z6 | z6 | z6 |:!mp! (B6 |!<(!!>(! c3!>)! G3)!<)! | (c3 E2) (E | A3 G3) | %11
w: |||||||A|_ ve|A ve Ma|ri a,|
 z2 z!mf! (e3- |!<(! efe B3-!<)! | B3 A3) |!>(! (F3!>)! G3) | z2 z!<(! e3- | e3 f3!<)! |!f! g6- | %18
w: gra|_ ti a ple|_ na,|ple na,|Do|_ mi|nus|
 g3!>(! BAB!>)! | G3 E3 | FEF"^rinforzando" B2 B |!<(! B3 c3 | dcd e2!<)! e |!ff! e3 a3 | %24
w: _ te _ _|_ cum,|be _ ne dic ta|tu in|mu _ li e ri|bus, et|
 a2 c e2 e |!>(! BcG B2 B |"^rit." B2 F B3- | B3!>)!!p! B3 | z6 | z6 :| z6 | z6 | z6 | z6 | z6 || %35
w: be ne dic tus|fru _ tus ven tris|tu i Ie|_ sus.||||||||
 z2 z!mf! (A2 c | B3 G2) (c | B3 F3) | (ABc d2 d) |!<(! (ABc e2!<)! e) |!f! (Bcd efd/c/ | %41
w: San _|_ cta Ma|ria a|ma _ ter De i,|o ra pro no bis|o ra pro no _ _ _|
 B)cd ef/e/d/c/ |!<(! Bcd e/G/ A/B/ c/d/ | e/d/e/f/g/!<)!a/!ff! b3- | b3!>(! g3 | e3 B2 A | %46
w: bis _ _ _ _ _ _ _|o ra pro no _ bis _ pec _|ca _ _ _ _ _ to|_ ri|_ bus, in|
 e2!>)! e!f! B3- | B3 A3 |!mf! G6 | C3 F3- | F3 E3- |!p!!>(! E3 z2 z!>)! | z2 z!mf! (A2 c | %53
w: ho ra mor|_ tis|no|strae A|_ men.|_|San _|
 B3 G2) (c | B3 F3) | (ABc d2 d) | ABc"^rinforzando" e2 e | Bcd (efd/c/ | Bcd ef/e/d/c/) | %59
w: _ cta Ma|ria a|ma _ ter De i,|o ra pro no bis|o ra pro no _ _ _|bis _ _ _ _ _ _ _|
 Bcd e/G/ A/B/ c/d/ |!<(! e/d/e/f/g/!<)!a/!fff! b3- | b3 !fermata!g3 | %62
w: o ra pro no _ bis _ pec _|ca _ _ _ _ _ to|_ ri|
!>(! !fermata!e3!>)! !fermata!B2"^a tempo" A |!mf! e2 e B3- | B3 A3 |!>(! G6 | C3 F3- | %67
w: _ bus, in|ho ra mor|_ tis|no|strae A|
 F3!>)! E3- |!pp! E3!>)!!>(! z2 z | z6 | z6 |] %71
w: _ men.|_|||
V:2
!p! (BEF) (BEF) | (AEF) (BEF) | (GFE) (cFE) |!<(! (AGA [F-G]3!<)! | [FG]3!mf!!>(! [EF]2) (B,!>)! | %5
 [EF]2) (B,"^rit." E2) (D | [EF]2) (B, [DE]2) (B, |:"^a tempo" GEF) (B!mp!EF) | (cEF) (BEF) | %9
 (GFE) (cFE) | (ACE G3) |!mf! (A!<(!Bc e!<)!d/c/B/A/ | BA[B,G] E2) (D | EFB, C2) (D | %14
!>(! FED!>)! E2) (D | [EF]2) (B,!<(! EGD | EFB, [Ff][Ee]!<)![Fd]) | ([Gg][Af][Be] [Gd][Ec][DB] | %18
 [EG]3)!>(! ([CE][DF][EG]!>)! | [CE]3) ([G,E][A,F][G,B,]) | [A,F][G,E][E,D] [B,D][G,E][E,D] | %21
 [B,C]A,F, [B,C]A,G, | [B,D]CB, [CE]G,B, | EDC [FA]ED | (cGE) (eBG) | (BcG B/E/G/A/B/c/ | %26
 d3) z2 z | d3 z2 z | c3 z2 z |!>(! B3!>)! [EF]!p!DE :| %30
"^a tempo un poco meno"!mp! [CEF]2 z ([Fce]3 | [Dd]G,E D3) | (F,G,E/C/ D3) | (F,G,E D3) | %34
 (F,G,E/C/ D3) ||!<(! F,/G,/A,/B,/C/!<)!D/!mf! A2 c | F,G,E/C/ D3 | F,G,E D3 | F,G,E/C/ D3 | %39
 (F,G,E/C/ [G,E]3) | (G,A,F/D/ E3) | (G,A,F/D/ E3) | (G,A,F/D/ E3) | (G,A,F E3) | %44
 (G,A,F/D/!>(! E3) | (G,A,F/D/ E3)!>)! | (G,A,F/D/ B3) | (G,A,F/D/ E3) | (F,G,E/C/ [G,E]3) | %49
 (F,G,E/C/ [G,E]3) | (F,G,D!>(! E3-)!>)! |!p! E2 (B, [EF]2) D | %52
!<(! (F,/G,/A,/B,/C/!<)!D/!mf! A2 c | F,G,E/C/ D3 | F,G,E D3 | F,G,E/C/ [F,D]3) | %56
 (F,G,E/C/ [G,E]3) | (G,A,F/D/ E3) | (G,A,F/D/ E3) | (G,A,F/D/ E3) | (G,A,F EFA) | [G,DEG]3 z2 z | %62
 z6 | (G,A,F/D/ B3) | (G,A,F/D/ E3) | (F,G,E/C/ [G,E]3) | (F,G,E/C/ [G,E]3) | (F,G,D E3-) | %68
!pp! E2 (B, [EF]2) (D |"^rit." [EF]2) (B,!>(! [DE]2) (B,!>)! | [G,DE]6) |] %71
V:3
 ([E,E]3 [D,D]3 | [C,C]3 [B,,B,]3 | [A,,A,]3 [G,,G,]3 | [F,,F,]3) (E,,B,,E, | F,G,A, CC,G,) | %5
 (E,,B,,G,) (E,,B,,G,) | (E,,B,,G,) (E,,B,,D,) |: (E,3 D,3 | C,3 B,,3 | A,,3 G,,3 | %10
 F,,3) (E,,B,,E, | F,G,A, CC,G,) | (E,,B,,G,) (D,,B,,G,) | (C,,B,,G,) (F,,B,,G,) | %14
 (E,,B,,G,) (E,,B,,G,) | (E,,B,,G,) (E,,B,,G,) | (C,,B,,G,) (F,,B,,G,) |!f! E,,3 E,3 | %18
 (CG,C, E,3) | (CG,C, E,3) | (B,,3"^rinforzando" A,,3 |!<(! G,,3 F,,3 | E,,3) (E,3!<)! | %23
!ff! F,3 [D,A,]3 | [A,C]3 B,3) | (CA,B, [E,C]3 |"^rit." B,3) (B,,3 | B,3) (B,,3 | A,3) A,,3 | %29
 (E,,B,,E, G,3) :| [F,A,]2 z (F,,C,E, | A,,3) (F,,C,E, | D,2) z (F,,C,E, | A,,2) z (F,,C,E,) | %34
 z2 z (F,,C,E,) || z2 z (F,,C,E,) | z2 z (F,,C,E,) | z2 z (F,,C,E,) | z2 z (F,,C,E, | %39
!<(! D,2) (A,,!<)! F,,C,E,) |!f! E,2 (B,, G,,D,F, | D,2) (B,, G,,D,F, |!<(! E,2) (B,, G,,D,F, | %43
 [E,,E,]3)!<)!!ff! (G,,D,F, | [E,,E,]3) (G,,D,F, | [E,,E,]3) (G,,D,F, | B,,3)!f! (G,,D,F, | %47
 A,,3) (G,,D,F, |!mf! A,,3) (F,,C,E, | A,,3) (F,,C,E, | A,,3) (F,,C,E,) | (E,,B,,G,) (E,,B,,G,) | %52
 z2 z (F,,C,)E, | z2 z (F,,C,E,) | z2 z (F,,C,E,) | z2 z (F,,C,E,) | %56
 D,2"^rinforzando" A,, F,,C,E, | E,2 (B,, G,,D,F, |"^liberamente" D,2) (B,, G,,D,F, | %59
 E,2) (B,, G,,D,F, |!<(! [E,,E,]3)!<)! (G,,!fff!D,F, |!>(! [E,,E,]3)!>)! z2 z | z6 | %63
!mf! B,,3"^a tempo" (G,,D,F, | A,,3) (G,,D,F, |!>(! A,,3) (F,,C,E, | A,,3) (F,,C,E, | %67
 A,,3)!>)! (F,,C,E,) | (E,,B,,G,) (E,,B,,G,) | (E,,B,,G,) (E,,B,,D,) |!ppp! [E,,B,,E,]6 |] %71
V:4
 x6 | x6 | x6 | x6 | x6 | x6 | x6 |: x6 | x6 | x6 | x6 | x6 | x6 | x6 | x6 | x6 | x6 | x6 | x6 | %19
 x6 | x6 | x6 | x6 | x6 | x6 | x6 | z (DFABG) | z (DFABG) | z (CEGAF) | G3 x3 :| x6 | x6 | x6 | %33
 x6 | x6 || x6 | def g2 e | dEG F2 E | FGA B3 | x6 | x6 | x6 | x6 | x6 | x6 | x6 | x6 | x6 | x6 | %49
 x6 | x6 | x6 | x6 | def g2 e | dEG F2 E | FGA B3 | x6 | x6 | x6 | x6 | x6 | x6 | x6 | x6 | x6 | %65
 x6 | x6 | x6 | x6 | x6 | x6 |] %71

